X:150
T: Der Meierin Sohn
N: Q0083
O: Suedosteuropa, Jugoslawien, Gottschee, Buehel
R: Ballade, Mord, Vergeltung, Heirat
M: 3/4
L: 1/8
K: F
GA | B2A2BA | G2F2G2 | A2A2G2 | F4
FG | A2G2AG | F2E2F2 | G4G2 | F4

@@@ Tune index: 1205
